X: 15475
T: Glencolmcille
R: reel
M: 4/4
K: Dmajor
A,B,DE FEDF|Adcd BAFA|B3c dBAF|GEFD EDB,D|
A,B,DE FEDF|Adcd BAFA|B3c dBAG|1 FDEC D3B,:|2 FDEC D3g||
fded cBAg|fdef g2ag|fded cBAF|EBAG FDD2|
fded cBAg|fdef g2fg|afge fded|cABc d3g:|

